img/why2.svg

<svg width="56" height="56" viewBox="0 0 56 56" fill="none" xmlns="http://www.w3.org/2000/svg">
    <path d="M51.575 36.7064C50.4454 36.0878 49.123 36.1331 48.0699 36.8077L40.5623 41.1737C40.391 41.2734 40.2108 41.355 40.031 41.4371C40.1675 41.0601 40.25 40.6624 40.25 40.25C40.25 38.3201 38.6799 36.75 36.75 36.75H27.7552C26.9366 36.75 26.1342 36.5201 25.437 36.0869L20.9893 33.303C20.0118 32.6959 18.8898 32.375 17.7448 32.375H13.0007C12.6094 30.8698 11.251 29.75 9.625 29.75H3.5C3.01678 29.75 2.625 30.1418 2.625 30.625V48.125C2.625 48.6082 3.01678 49 3.5 49H9.625C11.251 49 12.6094 47.8802 13.0007 46.375H13.8423C16.5485 46.375 19.1778 47.3478 21.2427 49.1115L22.1284 49.875C24.8268 52.1847 28.1978 53.3579 31.5837 53.3579C34.4292 53.3579 37.2853 52.5286 39.7591 50.8483L39.8727 50.7697C40.2701 50.4949 40.3696 49.9498 40.0945 49.5524C39.8202 49.1547 39.2742 49.0547 38.8773 49.3307L38.7696 49.405C34.0109 52.6389 27.6343 52.2847 23.2687 48.5476L22.3821 47.7836C19.9981 45.7465 16.9651 44.625 13.8423 44.625H13.125V43.75C13.125 43.2668 12.7332 42.875 12.25 42.875C11.7668 42.875 11.375 43.2668 11.375 43.75V45.5C11.375 46.4652 10.5902 47.25 9.625 47.25H4.375V31.5H9.625C10.5902 31.5 11.375 32.2848 11.375 33.25V40.25C11.375 40.7332 11.7668 41.125 12.25 41.125C12.7332 41.125 13.125 40.7332 13.125 40.25V34.125H17.7448C18.5634 34.125 19.3658 34.3549 20.063 34.7881L24.5107 37.572C25.4882 38.1791 26.6102 38.5 27.7552 38.5H36.75C37.7152 38.5 38.5 39.2848 38.5 40.25C38.5 40.7161 38.3176 41.1553 37.9865 41.4865C37.6553 41.8176 37.2161 42 36.75 42H26.25C25.7668 42 25.375 42.3918 25.375 42.875C25.375 43.3582 25.7668 43.75 26.25 43.75H36.75H37.4849C38.8781 43.75 40.247 43.3821 41.4424 42.6862L48.9816 38.3009C49.5195 37.9565 50.1741 37.9335 50.735 38.2415C51.2922 38.5466 51.625 39.1075 51.625 39.7514C51.625 40.3196 51.343 40.8503 50.8705 41.1716L42.3828 46.9467C41.9833 47.2184 41.8799 47.7627 42.1517 48.1622C42.3209 48.4113 42.596 48.545 42.8759 48.545C43.0455 48.545 43.2164 48.4959 43.3672 48.3933L51.8544 42.6187C52.8063 41.9722 53.375 40.9003 53.375 39.7424C53.375 38.4581 52.7021 37.3234 51.575 36.7064V36.7064Z" fill="white"/>
    <path d="M7.875 36.75C8.8415 36.75 9.625 35.9665 9.625 35C9.625 34.0335 8.8415 33.25 7.875 33.25C6.9085 33.25 6.125 34.0335 6.125 35C6.125 35.9665 6.9085 36.75 7.875 36.75Z" fill="white"/>
    <path d="M22.1293 23.8075L22.3964 23.9737C21.9281 25.9924 22.4917 28.0692 23.9323 29.5791C25.4379 31.1582 27.6062 31.8077 29.739 31.3193L30.0441 31.248C31.1434 33.0069 33.0147 34.075 35.1048 34.1216C35.1522 34.1229 35.1992 34.1233 35.2462 34.1233C37.3722 34.1233 39.3029 33.0552 40.4326 31.2458L40.5988 30.9788C42.6171 31.4458 44.6943 30.8835 46.2042 29.4428C47.7833 27.9368 48.434 25.7672 47.9444 23.6361L47.8731 23.3311C49.632 22.2318 50.7001 20.3604 50.7467 18.2704C50.7954 16.0888 49.7205 14.0975 47.8709 12.9426L47.6039 12.7764C48.0722 10.7577 47.5086 8.68083 46.0679 7.17093C44.5628 5.59226 42.3919 4.94028 40.2612 5.43076L39.9562 5.50211C38.8569 3.74314 36.9855 2.67502 34.8955 2.62845C32.6862 2.56308 30.7221 3.65469 29.5677 5.50424L29.4011 5.7717C28.1343 5.47818 26.8423 5.58585 25.649 6.08829C25.2034 6.27542 24.994 6.78854 25.1812 7.23373C25.3683 7.67935 25.8806 7.88998 26.3266 7.70157C27.2418 7.31662 28.2381 7.25724 29.2173 7.53024L29.5762 7.62637C29.9488 7.72678 30.3414 7.57083 30.5452 7.24442L31.0524 6.43094C31.8765 5.11075 33.3091 4.34042 34.8566 4.37802C36.419 4.41263 37.8101 5.24619 38.5792 6.60953L38.7629 6.93338C38.9543 7.27047 39.3435 7.44436 39.7229 7.35336L40.6564 7.13547C42.1762 6.78641 43.7266 7.25125 44.8016 8.37833C45.8778 9.50711 46.2687 11.0785 45.8449 12.5923L45.7488 12.9511C45.6492 13.3228 45.8043 13.7163 46.1307 13.9201L46.9442 14.4273C48.2644 15.2514 49.0317 16.6737 48.9971 18.2315C48.9625 19.7939 48.129 21.185 46.7656 21.9541L46.4418 22.1378C46.1047 22.3292 45.9333 22.7201 46.0218 23.0978L46.2397 24.0313C46.5887 25.5515 46.1243 27.1011 44.9968 28.1765C43.868 29.2527 42.2953 29.6419 40.7829 29.2198L40.424 29.1237C40.0514 29.0246 39.6588 29.1788 39.455 29.5056L38.9479 30.3191C38.1237 31.6393 36.6873 32.4096 35.1437 32.372C33.5812 32.3374 32.1901 31.5039 31.4211 30.1405L31.2374 29.8167C31.0464 29.4796 30.6593 29.3074 30.2773 29.3967L29.3438 29.6146C27.8266 29.9641 26.2745 29.4997 25.1987 28.3717C24.1224 27.2429 23.7315 25.6715 24.1553 24.1578L24.2515 23.7989C24.351 23.4272 24.1959 23.0337 23.8695 22.8299L23.056 22.3228C21.7358 21.4986 20.9685 20.0763 21.0031 18.5186C21.0377 16.9561 21.8713 15.565 23.2346 14.796L23.5585 14.6123C23.8956 14.4209 24.0669 14.0299 23.9785 13.6522L23.7606 12.7183C23.5157 11.657 23.6563 10.6021 24.166 9.66775C24.3976 9.24349 24.2412 8.71199 23.817 8.48043C23.3927 8.24887 22.8616 8.40609 22.6296 8.8295C21.9221 10.127 21.7179 11.6476 22.0558 13.1139L22.1272 13.419C20.3682 14.5183 19.3001 16.3896 19.2535 18.4797C19.2048 20.6612 20.2798 22.6526 22.1293 23.8075V23.8075Z" fill="white"/>
    <path d="M41.4258 13.8312C41.7039 14.2256 42.2495 14.32 42.6451 14.0406C43.0399 13.7616 43.1335 13.2156 42.8545 12.8212C41.0524 10.2719 38.1159 8.75 35 8.75C29.6927 8.75 25.375 13.0677 25.375 18.375C25.375 23.6823 29.6927 28 35 28C40.3073 28 44.625 23.6823 44.625 18.375C44.625 17.6923 44.5502 17.0078 44.4033 16.3405C44.299 15.8683 43.8307 15.568 43.3604 15.6744C42.8882 15.7786 42.59 16.2456 42.6943 16.7173C42.816 17.2684 42.875 17.811 42.875 18.375C42.875 22.7171 39.3421 26.25 35 26.25C30.6579 26.25 27.125 22.7171 27.125 18.375C27.125 14.0329 30.6579 10.5 35 10.5C37.5485 10.5 39.9509 11.7454 41.4258 13.8312Z" fill="white"/>
    <path d="M31.4997 23.625C31.756 23.625 32.0106 23.5127 32.1833 23.2965L39.1833 14.5465C39.4853 14.1692 39.4242 13.6185 39.0465 13.3169C38.6706 13.0148 38.1186 13.0759 37.8169 13.4536L30.8169 22.2036C30.5149 22.5808 30.576 23.1316 30.9536 23.4332C31.1147 23.5622 31.3078 23.625 31.4997 23.625Z" fill="white"/>
    <path d="M35 14.875C35 13.4275 33.8225 12.25 32.375 12.25C30.9275 12.25 29.75 13.4275 29.75 14.875C29.75 16.3225 30.9275 17.5 32.375 17.5C33.8225 17.5 35 16.3225 35 14.875ZM31.5 14.875C31.5 14.3926 31.8926 14 32.375 14C32.8574 14 33.25 14.3926 33.25 14.875C33.25 15.3574 32.8574 15.75 32.375 15.75C31.8926 15.75 31.5 15.3574 31.5 14.875Z" fill="white"/>
    <path d="M37.625 24.5C39.0725 24.5 40.25 23.3225 40.25 21.875C40.25 20.4275 39.0725 19.25 37.625 19.25C36.1775 19.25 35 20.4275 35 21.875C35 23.3225 36.1775 24.5 37.625 24.5ZM37.625 21C38.1074 21 38.5 21.3926 38.5 21.875C38.5 22.3574 38.1074 22.75 37.625 22.75C37.1426 22.75 36.75 22.3574 36.75 21.875C36.75 21.3926 37.1426 21 37.625 21Z" fill="white"/>
    <path d="M7 39.375V44.625C7 45.1082 7.39178 45.5 7.875 45.5C8.35822 45.5 8.75 45.1082 8.75 44.625V39.375C8.75 38.8918 8.35822 38.5 7.875 38.5C7.39178 38.5 7 38.8918 7 39.375Z" fill="white"/>
</svg>

<svg width="56" height="56" fill="none" xmlns="http://www.w3.org/2000/svg"><path d="M51.575 36.706c-1.13-.618-2.452-.573-3.505.102l-7.508 4.366c-.171.1-.351.181-.531.263a3.48 3.48 0 00.219-1.187c0-1.93-1.57-3.5-3.5-3.5h-8.995c-.818 0-1.62-.23-2.318-.663l-4.448-2.784a6.146 6.146 0 00-3.244-.928H13c-.392-1.505-1.75-2.625-3.376-2.625H3.5a.875.875 0 00-.875.875v17.5c0 .483.392.875.875.875h6.125c1.626 0 2.984-1.12 3.376-2.625h.841c2.707 0 5.336.973 7.4 2.736l.886.764a14.522 14.522 0 009.456 3.483c2.845 0 5.701-.83 8.175-2.51l.114-.078a.875.875 0 10-.996-1.44l-.107.075c-4.76 3.234-11.136 2.88-15.501-.857l-.887-.764a13.16 13.16 0 00-8.54-3.159h-.717v-.875a.875.875 0 00-1.75 0v1.75c0 .965-.785 1.75-1.75 1.75h-5.25V31.5h5.25c.965 0 1.75.785 1.75 1.75v7a.875.875 0 001.75 0v-6.125h4.62c.818 0 1.62.23 2.318.663l4.448 2.784c.977.607 2.1.928 3.244.928h8.995c.965 0 1.75.785 1.75 1.75 0 .466-.182.905-.514 1.236-.33.332-.77.514-1.236.514h-10.5a.875.875 0 000 1.75h11.235a7.874 7.874 0 003.957-1.064l7.54-4.385a1.694 1.694 0 011.753-.06c.557.306.89.867.89 1.51 0 .569-.282 1.1-.755 1.42l-8.487 5.776a.875.875 0 10.984 1.446l8.487-5.774a3.468 3.468 0 001.521-2.877 3.416 3.416 0 00-1.8-3.036z" fill="#fff"/><path d="M7.875 36.75a1.75 1.75 0 100-3.5 1.75 1.75 0 000 3.5zM22.13 23.808l.266.166a6.07 6.07 0 001.536 5.605 6.074 6.074 0 005.807 1.74l.305-.071a6.078 6.078 0 005.202 2.875 6.064 6.064 0 005.187-2.877l.166-.267a6.074 6.074 0 005.605-1.536 6.073 6.073 0 001.74-5.807l-.07-.305a6.078 6.078 0 002.873-5.06 6.066 6.066 0 00-2.876-5.328l-.267-.167a6.07 6.07 0 00-1.536-5.605 6.072 6.072 0 00-5.807-1.74l-.305.071a6.078 6.078 0 00-5.06-2.874c-2.21-.065-4.174 1.027-5.328 2.876l-.167.268a6.063 6.063 0 00-3.752.316.875.875 0 10.678 1.614 4.355 4.355 0 012.89-.172l.36.096c.372.1.764-.055.968-.382l.507-.813a4.337 4.337 0 013.805-2.053 4.348 4.348 0 013.722 2.232l.184.323a.87.87 0 00.96.42l.933-.218a4.34 4.34 0 014.146 1.243 4.347 4.347 0 011.043 4.214l-.096.36c-.1.37.055.764.382.968l.813.507a4.332 4.332 0 012.053 3.805 4.348 4.348 0 01-2.231 3.722l-.324.184a.875.875 0 00-.42.96l.218.933a4.337 4.337 0 01-1.243 4.146 4.352 4.352 0 01-4.214 1.043l-.359-.096a.875.875 0 00-.969.382l-.507.813a4.342 4.342 0 01-3.804 2.053 4.347 4.347 0 01-3.723-2.232l-.184-.323a.871.871 0 00-.96-.42l-.933.218a4.337 4.337 0 01-4.145-1.243 4.347 4.347 0 01-1.044-4.214l.096-.36a.876.876 0 00-.382-.968l-.813-.507a4.332 4.332 0 01-2.053-3.804 4.347 4.347 0 012.232-3.723l.323-.184a.875.875 0 00.42-.96l-.217-.934a4.271 4.271 0 01.405-3.05.875.875 0 10-1.536-.838 6.082 6.082 0 00-.574 4.284l.071.305a6.078 6.078 0 00-2.873 5.06 6.067 6.067 0 002.875 5.329z" fill="#fff"/><path d="M41.426 13.831a.874.874 0 101.428-1.01A9.635 9.635 0 0035 8.75c-5.307 0-9.625 4.318-9.625 9.625S29.693 28 35 28s9.625-4.318 9.625-9.625a9.48 9.48 0 00-.222-2.035.874.874 0 10-1.709.377 7.58 7.58 0 01.181 1.658c0 4.342-3.533 7.875-7.875 7.875-4.342 0-7.875-3.533-7.875-7.875 0-4.342 3.533-7.875 7.875-7.875a7.884 7.884 0 016.426 3.331z" fill="#fff"/><path d="M31.5 23.625c.256 0 .51-.112.683-.328l7-8.75a.874.874 0 10-1.366-1.093l-7 8.75a.874.874 0 00.683 1.421zm3.5-8.75a2.628 2.628 0 00-2.625-2.625 2.628 2.628 0 00-2.625 2.625 2.628 2.628 0 002.625 2.625A2.628 2.628 0 0035 14.875zm-3.5 0a.876.876 0 011.75 0 .876.876 0 01-1.75 0zm6.125 9.625a2.628 2.628 0 002.625-2.625 2.628 2.628 0 00-2.625-2.625A2.628 2.628 0 0035 21.875a2.628 2.628 0 002.625 2.625zm0-3.5a.876.876 0 010 1.75.876.876 0 010-1.75zM7 39.375v5.25a.875.875 0 001.75 0v-5.25a.875.875 0 00-1.75 0z" fill="#fff"/></svg>
